public/avatar/body/112.svg

<svg xmlns:xlink="http://www.w3.org/1999/xlink" height="82" width="84.85" xmlns="http://www.w3.org/2000/svg"><g transform="translate(37.4 42.25)"><use height="38" transform="translate(-11.95 -17.45)" width="32.05" xlink:href="#a"/><use height="12.7" transform="translate(-9.55 -12.55)" width="27.1" xlink:href="#b"/><use height="38.95" transform="translate(-12.45 -17.95)" width="33.05" xlink:href="#c"/><use height="14.85" transform="translate(-12.65 9.55)" width="33.75" xlink:href="#d"/></g><defs><path d="M27.35 7.4q2.15 4.15 3.55 8.75 1.45 4.7 1.15 9.5-.35 4.95-4.2 8.1-3.8 3.2-8.75 4.05l-2.6.2q-3.6 0-7.05-1.15-4.65-1.6-7.1-5.5Q-.2 27.4.05 23q.2-4.4 2-9.3Q3.85 8.75 7 5.05 10.1 1.3 14.7.1l1.8-.1q1.9.05 3.7.8 4.75 2.05 7.15 6.6" fill="#c98036" fill-rule="evenodd" transform="translate(-.05)" id="e"/><path d="M27.35 7.4Q24.95 2.85 20.2.8 17.55-.3 14.7.1 10.1 1.3 7 5.05q-3.15 3.7-4.95 8.65-1.8 4.9-2 9.3-.25 4.4 2.3 8.35 2.45 3.9 7.1 5.5 4.65 1.55 9.65.95 4.95-.85 8.75-4.05 3.85-3.15 4.2-8.1.3-4.8-1.15-9.5-1.4-4.6-3.55-8.75Z" fill="none" stroke="#333" stroke-linecap="round" stroke-linejoin="round" transform="translate(.45 .5)" id="f"/><path d="M17.5-5q.25 1.3-.7 2.6Q14.9.15 8.85.15q-4.15 0-4.8-2.1v-7.9L5.3-11.2q1.6-1.35 3.15-1.35 4.6 0 6.15 1.5.75.75.6 1.5L17.5-5M4.05-1.95Q3.4.15-.8.15q-6.4 0-8.15-2.55-.55-.85-.6-1.8l.1-.8 2.35-4.55q0-3 6.65-3 2.5 0 4.5 2.7v7.9" transform="translate(9.55 12.55)" id="b" fill="#f3b372" fill-rule="evenodd"/><use height="38" width="32.05" xlink:href="#e" id="a"/><use height="38.95" width="33.05" xlink:href="#f" id="c"/><g id="d"><path d="M7.55 20.35 8.75 19q1.5-1.45 3.3-2.15 2.9-1.15 5.55-1.85M.75 20.15q-1.7-2.2-4.55-3.3-2.9-1.15-5.5-2" fill="none" stroke="#875625" stroke-linecap="round" stroke-linejoin="round" transform="translate(12.65 -9.55)"/><path d="M7.2 21.25q-3.1 1.05-6.2 0-4-1.7-6.4-3.2l-3.95-3.4-1.6-3.05q7.15 4.05 14.85 4.05h.4q7.65 0 15.4-4.25l-2.15 3.25Q15.3 16.8 12.9 18.3l-5.7 2.95" fill="#d90000" fill-rule="evenodd" transform="translate(12.65 -9.55)"/><path d="M6.45 23.45q-3.05-1.6 0-4.5 2-1.85 7.5-2.6l5.85-3.15q1.5 6.65-1.6 8.4-2.3 1.3-6.45 1.9-4.1.65-5.3-.05" fill="#d90000" fill-rule="evenodd" transform="translate(12.65 -9.55)"/><path d="m2.7 16.1 6.25-.9q3.6 0 6.2-1 3.85-1.45 4.65-1.1-.3 1.8-3.05 2.95-2.15.9-4.55 1.05-5.45.25-9.5-1" fill="#ff5524" fill-rule="evenodd" transform="translate(12.65 -9.55)"/><path d="M1.7 23.45q-1.25.7-5.35.05-4.1-.6-6.4-1.9-3.1-1.75-1.65-8.4l5.9 3.15 3 .6q3.25.85 4.5 2 3.05 2.9 0 4.5" fill="#d90000" fill-rule="evenodd" transform="translate(12.65 -9.55)"/><path d="m-2.7 15.2 4.65 1.15-5.9.7q-2.15.15-4.85-.85-2.7-1.05-2.7-2.5-.05-2.15 2.85-.65l5.95 2.15" fill="#ff5524" fill-rule="evenodd" transform="translate(12.65 -9.55)"/><path d="M-10.4 12.05q6.15 4.05 14.5 4.05 8.65 0 15.15-4.2" fill="none" stroke="#ff9d80" stroke-linecap="round" stroke-linejoin="round" transform="translate(12.65 -9.55)"/><path d="M.4 20.6q-1.45-.15-2.65-.85l5.55-.6q3.15 0 6.4.8-.7.5-4.6 1.4l-2.35-.15-2.35-.6" fill="#b20000" fill-rule="evenodd" transform="translate(12.65 -9.55)"/><path d="M-2.55 20.1q1.35 1 6 1 4.6 0 6.1-.9" fill="none" stroke="#900" stroke-linecap="round" stroke-linejoin="round" transform="translate(12.65 -9.55)"/><path d="m14.7 13.35 1.8 1.35q1.8 1.5 1.8 2.5l-.1 3.9m-6.5-7 3.25 3.35q.5 1.15.1 5.25m-22.1-9.85-1.6.9q-1.65 1.2-1.65 2.6l.25 4.6m2.6 1.4q-.6-4.5.25-5.65l3.65-2.6" fill="none" stroke="#fff" stroke-linecap="round" stroke-linejoin="round" transform="translate(12.65 -9.55)"/><path d="m4.75 21.65.5.95q.7 1 1.85 1.3l6.1-.45q4.9-1 6.25-2.9 2-2.85.55-8M3.1 21.9q-.1 2.05-4.85 1.8-9.9-.5-10.3-4.8-.2-1.95.1-4.5l.4-2.2m.25-2q6.4 4.95 15.5 4.95 9.05 0 15.75-5.1" fill="none" stroke="#900" stroke-linecap="round" stroke-linejoin="round" transform="translate(12.65 -9.55)"/></g></defs></svg>

<?xml version="1.0" encoding="UTF-8" standalone="no"?>
<svg xmlns:xlink="http://www.w3.org/1999/xlink" height="82.0px" width="84.85px" xmlns="http://www.w3.org/2000/svg">
  <g transform="matrix(1.0, 0.0, 0.0, 1.0, 37.4, 42.25)">
    <use height="38.0" transform="matrix(1.0, 0.0, 0.0, 1.0, -11.95, -17.45)" width="32.05" xlink:href="#sprite0"/>
    <use height="12.7" transform="matrix(1.0, 0.0, 0.0, 1.0, -9.55, -12.55)" width="27.1" xlink:href="#shape1"/>
    <use height="38.95" transform="matrix(1.0, 0.0, 0.0, 1.0, -12.45, -17.95)" width="33.05" xlink:href="#sprite1"/>
    <use height="14.85" transform="matrix(1.0, 0.0, 0.0, 1.0, -12.65, 9.55)" width="33.75" xlink:href="#shape3"/>
  </g>
  <defs>
    <g id="sprite0" transform="matrix(1.0, 0.0, 0.0, 1.0, -0.05, 0.0)">
      <use height="38.0" transform="matrix(1.0, 0.0, 0.0, 1.0, 0.05, 0.0)" width="32.05" xlink:href="#shape0"/>
    </g>
    <g id="shape0" transform="matrix(1.0, 0.0, 0.0, 1.0, -0.05, 0.0)">
      <path d="M27.35 7.4 Q29.5 11.55 30.9 16.15 32.35 20.85 32.05 25.65 31.7 30.6 27.85 33.75 24.05 36.95 19.1 37.8 L16.5 38.0 Q12.9 38.0 9.45 36.85 4.8 35.25 2.35 31.35 -0.2 27.4 0.05 23.0 0.25 18.6 2.05 13.7 3.85 8.75 7.0 5.05 10.1 1.3 14.7 0.1 L16.5 0.0 Q18.4 0.05 20.2 0.8 24.95 2.85 27.35 7.4" fill="#c98036" fill-rule="evenodd" stroke="none"/>
    </g>
    <g id="shape1" transform="matrix(1.0, 0.0, 0.0, 1.0, 9.55, 12.55)">
      <path d="M17.5 -5.0 Q17.75 -3.7 16.8 -2.4 14.9 0.15 8.85 0.15 4.7 0.15 4.05 -1.95 L4.05 -9.85 5.3 -11.2 Q6.9 -12.55 8.45 -12.55 13.05 -12.55 14.6 -11.05 15.35 -10.3 15.2 -9.55 L17.5 -5.0" fill="#f3b372" fill-rule="evenodd" stroke="none"/>
      <path d="M4.05 -1.95 Q3.4 0.15 -0.8 0.15 -7.2 0.15 -8.95 -2.4 -9.5 -3.25 -9.55 -4.2 L-9.45 -5.0 -7.1 -9.55 Q-7.1 -12.55 -0.45 -12.55 2.05 -12.55 4.05 -9.85 L4.05 -1.95" fill="#f3b372" fill-rule="evenodd" stroke="none"/>
    </g>
    <g id="sprite1" transform="matrix(1.0, 0.0, 0.0, 1.0, 0.45, 0.5)">
      <use height="38.95" transform="matrix(1.0, 0.0, 0.0, 1.0, -0.45, -0.5)" width="33.05" xlink:href="#shape2"/>
    </g>
    <g id="shape2" transform="matrix(1.0, 0.0, 0.0, 1.0, 0.45, 0.5)">
      <path d="M27.35 7.4 Q24.95 2.85 20.2 0.8 17.55 -0.3 14.7 0.1 10.1 1.3 7.0 5.05 3.85 8.75 2.05 13.7 0.25 18.6 0.05 23.0 -0.2 27.4 2.35 31.35 4.8 35.25 9.45 36.85 14.1 38.4 19.1 37.8 24.05 36.95 27.85 33.75 31.7 30.6 32.05 25.65 32.35 20.85 30.9 16.15 29.5 11.55 27.35 7.4 Z" fill="none" stroke="#333333" stroke-linecap="round" stroke-linejoin="round" stroke-width="1.0"/>
    </g>
    <g id="shape3" transform="matrix(1.0, 0.0, 0.0, 1.0, 12.65, -9.55)">
      <path d="M7.55 20.35 L8.75 19.0 Q10.25 17.55 12.05 16.85 14.95 15.7 17.6 15.0" fill="none" stroke="#875625" stroke-linecap="round" stroke-linejoin="round" stroke-width="1.0"/>
      <path d="M0.75 20.15 Q-0.95 17.95 -3.8 16.85 -6.7 15.7 -9.3 14.85" fill="none" stroke="#875625" stroke-linecap="round" stroke-linejoin="round" stroke-width="1.0"/>
      <path d="M7.2 21.25 Q4.1 22.3 1.0 21.25 -3.0 19.55 -5.4 18.05 L-9.35 14.65 -10.95 11.6 Q-3.8 15.65 3.9 15.65 L4.3 15.65 Q11.95 15.65 19.7 11.4 L17.55 14.65 Q15.3 16.8 12.9 18.3 L7.2 21.25" fill="#d90000" fill-rule="evenodd" stroke="none"/>
      <path d="M6.45 23.45 Q3.4 21.85 6.45 18.95 8.45 17.1 13.95 16.35 L19.8 13.2 Q21.3 19.85 18.2 21.6 15.9 22.9 11.75 23.5 7.65 24.15 6.45 23.45" fill="#d90000" fill-rule="evenodd" stroke="none"/>
      <path d="M2.7 16.1 L8.95 15.2 Q12.55 15.2 15.15 14.2 19.0 12.75 19.8 13.1 19.5 14.9 16.75 16.05 14.6 16.95 12.2 17.1 6.75 17.35 2.7 16.1" fill="#ff5524" fill-rule="evenodd" stroke="none"/>
      <path d="M1.7 23.45 Q0.45 24.15 -3.65 23.5 -7.75 22.9 -10.05 21.6 -13.15 19.85 -11.7 13.2 L-5.8 16.35 -2.8 16.95 Q0.45 17.8 1.7 18.95 4.75 21.85 1.7 23.45" fill="#d90000" fill-rule="evenodd" stroke="none"/>
      <path d="M-2.7 15.2 L1.95 16.35 -3.95 17.05 Q-6.1 17.2 -8.8 16.2 -11.5 15.15 -11.5 13.7 -11.55 11.55 -8.65 13.05 L-2.7 15.2" fill="#ff5524" fill-rule="evenodd" stroke="none"/>
      <path d="M-10.4 12.05 Q-4.25 16.1 4.1 16.1 12.75 16.1 19.25 11.9" fill="none" stroke="#ff9d80" stroke-linecap="round" stroke-linejoin="round" stroke-width="1.0"/>
      <path d="M0.4 20.6 Q-1.05 20.45 -2.25 19.75 L3.3 19.15 Q6.45 19.15 9.7 19.95 9.0 20.45 5.1 21.35 L2.75 21.2 0.4 20.6" fill="#b20000" fill-rule="evenodd" stroke="none"/>
      <path d="M-2.55 20.1 Q-1.2 21.1 3.45 21.1 8.05 21.1 9.55 20.2" fill="none" stroke="#990000" stroke-linecap="round" stroke-linejoin="round" stroke-width="1.0"/>
      <path d="M14.7 13.35 L16.5 14.7 Q18.3 16.2 18.3 17.2 L18.2 21.1" fill="none" stroke="#ffffff" stroke-linecap="round" stroke-linejoin="round" stroke-width="1.0"/>
      <path d="M11.7 14.1 L14.95 17.45 Q15.45 18.6 15.05 22.7" fill="none" stroke="#ffffff" stroke-linecap="round" stroke-linejoin="round" stroke-width="1.0"/>
      <path d="M-7.05 12.85 L-8.65 13.75 Q-10.3 14.95 -10.3 16.35 L-10.05 20.95" fill="none" stroke="#ffffff" stroke-linecap="round" stroke-linejoin="round" stroke-width="1.0"/>
      <path d="M-7.45 22.35 Q-8.05 17.85 -7.2 16.7 L-3.55 14.1" fill="none" stroke="#ffffff" stroke-linecap="round" stroke-linejoin="round" stroke-width="1.0"/>
      <path d="M4.75 21.65 L5.25 22.6 Q5.95 23.6 7.1 23.9 L13.2 23.45 Q18.1 22.45 19.45 20.55 21.45 17.7 20.0 12.55" fill="none" stroke="#990000" stroke-linecap="round" stroke-linejoin="round" stroke-width="1.0"/>
      <path d="M3.1 21.9 Q3.0 23.95 -1.75 23.7 -11.65 23.2 -12.05 18.9 -12.25 16.95 -11.95 14.4 L-11.55 12.2" fill="none" stroke="#990000" stroke-linecap="round" stroke-linejoin="round" stroke-width="1.0"/>
      <path d="M-11.3 10.2 Q-4.9 15.15 4.2 15.15 13.25 15.15 19.95 10.05" fill="none" stroke="#990000" stroke-linecap="round" stroke-linejoin="round" stroke-width="1.0"/>
    </g>
  </defs>
</svg>
